assets/images/swiss/ic-pouch.svg

<svg height="27" viewBox="0 0 32 27" width="32" xmlns="http://www.w3.org/2000/svg"><g fill="none" fill-rule="evenodd" transform="translate(0 -3)"><path d="m0 0h32v32h-32z"/><path d="m9.99413009 3.07199892-9.99413009-.07199892v26.1114083h32v-21.99990997h-17.99961zm20.00589991 24.03943938h-28.00008v-22.09680852l7.15493268.05139923 3.42560862 3.45376819.5866512.59167113h16.8328875z" fill="#dc0018" fill-rule="nonzero"/></g></svg>

<?xml version="1.0" encoding="UTF-8"?>
<svg width="32px" height="27px" viewBox="0 0 32 27" version="1.1" xmlns="http://www.w3.org/2000/svg" xmlns:xlink="http://www.w3.org/1999/xlink">
    <!-- Generator: sketchtool 49.3 (51167) - http://www.bohemiancoding.com/sketch -->
    <title>4842F81F-4F4A-4012-88E9-F73003C70D42</title>
    <desc>Created with sketchtool.</desc>
    <defs></defs>
    <g id="Page-1" stroke="none" stroke-width="1" fill="none" fill-rule="evenodd">
        <g id="TCF-Participant---Pouches" transform="translate(-1045.000000, -492.000000)">
            <g id="Grid-#1" transform="translate(0.000000, 80.000000)">
                <g id="Pouches" transform="translate(150.000000, 298.000000)">
                    <g id="Customs" transform="translate(870.000000, 68.000000)">
                        <g id="title+icon" transform="translate(25.000000, 43.000000)">
                            <g id="ic-folder-white">
                                <rect id="Rectangle" x="0" y="0" width="32" height="32"></rect>
                                <path d="M9.99413009,3.07199892 L0,3 L0,29.1114083 L32,29.1114083 L32,7.11149833 L14.00039,7.11149833 L9.99413009,3.07199892 Z M30.00003,27.1114383 L1.99995,27.1114383 L1.99995,5.01462978 L9.15488268,5.06602901 L12.5804913,8.5197972 L13.1671425,9.11146833 L30.00003,9.11146833 L30.00003,27.1114383 Z" id="Shape" fill="#DC0018" fill-rule="nonzero"></path>
                            </g>
                        </g>
                    </g>
                </g>
            </g>
        </g>
    </g>
</svg>
